X:1
L:1/8
Q:1/2=100
M:2/2
K:G
 G2 BG dGBG | A/A/A Bd e2 g2 | G2 BG dGBG | cABG E2 D2 :| g>age dBGB | (gag).e agab | g>age dBGB | 
 cABG TE2 D2 | g>age dBGB | (g>ag)e agab | gbeg dgBG | cABG TE2 D2 |] </s><end_of_turn>
<start_of_turn>model
Sure, here is the extracted motif in ABC format:

G2 BG dGBG | A/A/A Bd e2 g2 | G2 BG dGBG | cABG E2 D2 :|<eos>

id:1
<bos><start_of_turn>user
You will see an instruction related to extracting the motif of a piece of ABC music. Your responses should only include the extracted motif in ABC format.

data is:
Human: Analyze the musical work and pinpoint the consistent melodic element in every section.
